svgs/light/arrow-right-from-bracket.svg

<svg xmlns="http://www.w3.org/2000/svg" viewBox="0 0 512 512"><!--! Font Awesome Pro 6.3.0 by @fontawesome - https://fontawesome.com License - https://fontawesome.com/license (Commercial License) Copyright 2023 Fonticons, Inc. --><path d="M507.3 244.7l-144-144c-6.25-6.25-16.38-6.25-22.62 0s-6.25 16.38 0 22.62L457.4 240H176C167.2 240 160 247.2 160 256s7.156 16 16 16h281.4l-116.7 116.7c-6.25 6.25-6.25 16.38 0 22.62s16.38 6.25 22.62 0l144-144C510.4 264.2 512 260.1 512 256S510.4 247.8 507.3 244.7zM176 448h-96C53.53 448 32 426.5 32 400v-288C32 85.53 53.53 64 80 64h96C184.8 64 192 56.84 192 48S184.8 32 176 32h-96C35.88 32 0 67.88 0 112v288C0 444.1 35.88 480 80 480h96C184.8 480 192 472.8 192 464S184.8 448 176 448z"/></svg>

<svg xmlns="http://www.w3.org/2000/svg" viewBox="0 0 512 512"><!--! Font Awesome Pro 6.4.0 by @fontawesome - https://fontawesome.com License - https://fontawesome.com/license (Commercial License) Copyright 2023 Fonticons, Inc. --><path d="M507.3 267.3c6.2-6.2 6.2-16.4 0-22.6l-128-128c-6.2-6.2-16.4-6.2-22.6 0s-6.2 16.4 0 22.6L457.4 240 176 240c-8.8 0-16 7.2-16 16s7.2 16 16 16l281.4 0L356.7 372.7c-6.2 6.2-6.2 16.4 0 22.6s16.4 6.2 22.6 0l128-128zM176 64c8.8 0 16-7.2 16-16s-7.2-16-16-16L80 32C35.8 32 0 67.8 0 112L0 400c0 44.2 35.8 80 80 80l96 0c8.8 0 16-7.2 16-16s-7.2-16-16-16l-96 0c-26.5 0-48-21.5-48-48l0-288c0-26.5 21.5-48 48-48l96 0z"/></svg>
